!! 00000] TT[WS
!!!OTL: Da maruru
!!!ARE: Asia, China, Shanxi Pianguan
!! Ethnic Group: Han
!! WII, 118
!!!SCT: J0581
!!!YEM: Copyright 1995, estate of Helmut Schaffrath.
**kern
*ICvox
*Ivox
*M2/4
*k[f#c#g#]
*A:
{8.cc#
16ee
4cc#
=1
8b
8b
8b
8b
=2
8.cc#
16ee
8cc#
8b
=3
2a}
=4
{8.cc#
16ee
4cc#
=5
8b
8b
8b
8cc#
=6
4.e
8f#
=7
4a
8g#
8f#
=8
8e
8f#
8e
8c#
=9
2B}
==
!!!AGN: Xiaodiao. Qingge, Sichun
!!!ONB: ESAC (Essen Associative Code) Database: CHINA
!!!AMT: simple duple
!!!AIN: vox
!!!EED: Helmut Schaffrath
!!!EEV: 1.0
*-
